X:23
T:The Star of the County Down
M:C
L:1/8
K:Am % transposed from Em
EG||A2 A2 A2 GA|c2 c2 d2 cd|e2 dc A2 G2|A6 EG|
A2 A2 A2 GA|c2 c2 d2 cd|e2 dc A2 G2|A6 e2|
g2 e2 e2 dc|d2 d2 d2 cd|e2 dc A2 GE|G6 EG|
A2 A2 A2 GA|c2 c2 d2 cd|e2 dc A2 G2|A6||
